src/assets/icons/checkbox-indeterminate.svg

<svg width="16" height="16" viewBox="0 0 16 16" fill="none" xmlns="http://www.w3.org/2000/svg">
<path d="M4.56032 7.0816C4.05364 7.0816 3.6429 7.49235 3.6429 7.99902C3.6429 8.5057 4.05364 8.91645 4.56032 8.91645H11.441C11.9477 8.91645 12.3584 8.5057 12.3584 7.99902C12.3584 7.49235 11.9477 7.0816 11.441 7.0816H4.56032Z" fill="currentColor"/>
<path fill-rule="evenodd" clip-rule="evenodd" d="M0.108533 1.45479C0.362585 0.68138 1.05649 0.108065 1.84475 0.020268C2.0613 -0.00386021 13.9013 -0.00580515 14.1252 0.0182497C15.098 0.122744 15.8769 0.901653 15.9814 1.87452C16.0081 2.12234 16.0081 13.8757 15.9814 14.1235C15.8769 15.0964 15.098 15.8753 14.1252 15.9798C13.8773 16.0064 2.12396 16.0064 1.87615 15.9798C0.923625 15.8775 0.154863 15.1301 0.0273777 14.1825C0.00548806 14.0198 0.00145136 13.0561 0.00145136 7.99903C0.00145136 2.07587 -0.00325617 1.79438 0.0791837 1.54127C0.0879456 1.51436 0.0976919 1.48778 0.108533 1.45479ZM1.84549 2.09344C1.85943 1.97496 1.93833 1.87616 2.03771 1.85267C2.07286 1.84436 4.77417 1.83882 8.0406 1.84036L13.9795 1.84313L14.0302 1.88096C14.0581 1.90177 14.0979 1.94159 14.1187 1.96946L14.1566 2.02014V13.9779L14.1187 14.0286C14.0979 14.0565 14.0581 14.0963 14.0302 14.1171L13.9795 14.1549H2.02176L1.97108 14.1171C1.94321 14.0963 1.9034 14.0565 1.88259 14.0286L1.84475 13.9779L1.83932 8.08485C1.83635 4.84365 1.83912 2.14751 1.84549 2.09344Z" fill="currentColor"/>
</svg>

<svg xmlns="http://www.w3.org/2000/svg" width="16" height="16" fill="none">
  <path fill="currentColor" d="M4.56 7.082a.917.917 0 0 0 0 1.834h6.881a.917.917 0 1 0 0-1.834h-6.88Z"/>
  <path fill="currentColor" fill-rule="evenodd" d="M.109 1.455C.363.68 1.056.108 1.845.02 2.06-.004 13.9-.006 14.125.018a2.1 2.1 0 0 1 1.856 1.857c.027.247.027 12 0 12.248a2.1 2.1 0 0 1-1.856 1.857c-.248.026-12.001.026-12.249 0a2.098 2.098 0 0 1-1.849-1.798C.005 14.02.001 13.056.001 8c0-5.923-.004-6.205.078-6.458l.03-.086Zm1.736.638c.014-.118.093-.217.193-.24A610.21 610.21 0 0 1 8.04 1.84l5.938.003.051.038c.028.02.068.06.089.088l.038.051v11.958l-.038.05a.522.522 0 0 1-.089.09l-.05.037H2.021l-.05-.038a.523.523 0 0 1-.09-.088l-.037-.051-.006-5.893c-.003-3.241 0-5.937.006-5.992Z" clip-rule="evenodd"/>
</svg>
